X:1
T:The Well-Tempered Clavier Book II - VI
T:BWV 875    (A = 415 Hz)
T:J. S. Bach
%%score { ( 1 3 ) | 2 }
L:1/8
Q:1/4=132
M:3/4
K:F
V:1 treble nm="Harp"
V:3 treble 
V:2 bass 
V:1
"^Allegro""^Praeludium" dc/B/ A/G/F/E/ D/F/E/D/ | B/G/D/G/ B/G/D/G/ B/G/D/G/ | %2
 A/G/D/G/ A/F/D/F/ A/F/D/F/ | G/E/D/E/ G/E/^C/E/ G/E/C/E/ | F2 z2 z2 | z D GB d/4^c/4d3/2 | %6
 z D FA d/4^c/4d3/2 | z G ^ce cA | dc/B/ A/G/F/E/ FA- | A/G/A/=B/ c/d/e/f/ g/f/e/d/ | %10
 e/c/B/A/ G/F/E/D/ EG- | G/F/G/A/ B/c/d/_e/ f/e/d/c/ | d/f/d/c/ B/d/B/A/ G/B/G/F/ | Ee/f/ gb eg | %14
 ^c/g/c/=B/ A/e/A/G/ F/c/F/E/ | Dd/e/ fa d^B | B/g/B/A/ G/B/G/F/ _E/B/E/D/ | %17
 ^C/A/C/=B,/ C/A/C/A/ C/A/C/A/ | ^C/A/C/=B,/ C/A/C/A/ C/A/C/A/ | D/A/D/^C/ D/A/D/A/ D/A/D/A/ | %20
 E/A/E/D/ E/A/E/A/ E/A/E/A/ | F/4A/4=B/4^c/4d/A/ F/A/d/A/ F/A/d/A/ | ^F/d/F/E/ F/d/F/d/ F/d/F/d/ | %23
 G/4A/4=B/4c/4d/B/ G/B/d/B/ G/B/d/B/ | ^G/d/G/^F/ G/d/G/d/ G/d/G/d/ | c2 z2 z2 | %26
 z A df a/4^g/4a3/2 | z A ce a/4^g/4a3/2 | z d ^g=b ge | ag/f/ e/d/c/=B/ A/c/B/A/ | %30
 f/d/A/d/ f/d/A/d/ f/d/A/d/ | e/d/A/d/ e/c/A/c/ e/c/A/c/ | d/=B/A/B/ d/B/^G/B/ d/B/G/B/ | c6- | %34
 c/_e/d/c/ ^f/e/d/c/ a/e/d/c/ | B/g/f/_e/ d/c/B/A/ c/B/A/G/ | ce =Bf _Bg- | %37
 g/d/c/B/ A/g/f/e/ d/f/e/d/ | ^c/B/A/G/ d/B/A/G/ e/B/A/G/ | F^F GA ^A=B | c^c de f^f | %41
 g/d/b/a/ g/f/e/d/ ^c/d/e/c/ | AE A^c e/4d/4e3/2- | e/A/F/A/ d/A/F/A/ d/4^c/4d3/2- | %44
 d/G/E/G/ c/G/E/G/ c/4=B/4c3/2- | c/F/D/F/ B/F/D/F/ B/G/E/G/ | ^C/A/B/A/ C/A/B/A/ CE- | %47
 E/A/B/A/ D/A/B/A/ DF- | F/G/A/G/ E/G/A/G/ A,G- | G/B,/A,/G,/ A,/E/D/^C/ D/G/F/E/ | %50
 F/B,/C/D/ _E/A,/B,/C/ D/B,/C/D/ | _E/A,/B,/C/ D/B,/C/D/ C/[I:staff +1]^F,/G,/A,/ | %52
[I:staff -1] B,/ z/ z z/ A,/B,/C/ D/B,/G/D/ | B/G/F/_E/ D/ z/ z z2 | %54
 z/ B/A/G/ e/d/^c/=B/ A/G/F/E/ | F/D/G/D/ A/D/B/D/ z/ D/E/^C/ | %56
 D/C/^F,/C/ D/C/[I:staff +1]F,/[I:staff -1]C/ D/C/[I:staff +1]F,/[I:staff -1]C/ | %57
[I:staff +1] B,/D/^A,/^F,/ A,/D/A,/F,/ A,/D/B,/E,/ | F,/D/F,/D/ F,/D/F,/D/ F,/D/F,/D/ | %59
 G,/^C/G,/E,/ G,/C/G,/E,/ G,/C/G,/E,/ | !fermata![^F,D]6 |[I:staff -1] z6 | %62
[M:4/4][Q:1/4=80]"^Fuga" (3D/E/F/(3G/F/E/ (3F/G/A/(3B/A/G/ Ad^c=c | =B_BAG- GFEA | %64
 (3A/=B/c/(3d/c/B/ (3c/d/e/(3f/e/d/ ea^g=g | ^f=fed- dc=Be | %66
 A=Bc^G (3A/=G/F/(3E/F/G/ (3F/E/D/(3^C/D/E/ | D^CDG- G/E/F/G/ A/=B/c/A/ | %68
 d/^c/d/e/ f/=B/e/d/ c/A/ d2 =c- | cB A2 G/g/a/g/ f/a/g/f/ | e/c/ f2 e- e/fe/- e/d^c/ | %71
 dB (3A/G/F/(3E/F/G/ (3F/E/D/(3^C/D/E/ (3D/E/F/(3G/F/E/ | (3F/G/A/(3B/A/G/ Ad ^c=c=B_B | %73
 Aa^g=g ^f=f e2- | e d2 ^c z/ a/b/a/ g/b/a/g/ | %75
 (3f/e/d/(3^c/d/e/ (3A/=B/=c/(3d/c/=B/ (3c/d/e/(3f/e/d/ ea | ^g=g^f=f ed-dc | %77
 =B _B2 A ^G =G2 G/4^^F/4G/4F/4 | E z z2 z2 (3z/ D/E/(3F/E/D/ | %79
 (3z/ B/A/(3G/A/B/ (3z/ A/B/(3c/B/A/ B^F (3G/A/B/(3c/B/A/ | (3B/c/d/(3_e/d/^c/ d2- d z g z | %81
 eg c z z2 (3f/_e/d/(3c/d/e/ | d2 (3^c/d/e/(3f/e/d/ (3e/f/g/(3a/g/f/ gf | %83
 e2- e/d/_e/d/ ^c/=e/d/=c/ =B_B | A3 G- GF E2 | D2 z2 z4 | z4 (3D/E/F/(3G/F/E/ (3F/G/A/(3B/A/G/ | %87
 Ad ^c=c =B_B AG- | G/G/F/E/ F/4E/4F/4E/4F/4E/4D/ !fermata!D4 |] %89
V:2
 D,/4^C,/4D,3/2 D,,2 z2 | z D,, G,,B,, D,/4^C,/4D,3/2 | z D,, F,,A,, D,/4^C,/4D,3/2 | %3
 z B, E,G, ^C,A, | D,2 z/ G,/F,/E,/ D,/F,/E,/D,/ | B,/G,/D,/G,/ B,/G,/D,/G,/ B,/G,/D,/G,/ | %6
 A,/G,/D,/G,/ A,/F,/D,/F,/ A,/F,/D,/F,/ | G,/E,/D,/E,/ G,/E,/^C,/E,/ G,/E,/C,/E,/ | %8
 F,/D,/E,/F,/ G,/A,/=B,/^C/ D/=C/B,/A,/ | =B,/C/B,/A,/ G,/F,/E,/D,/ E,G, | %10
 C,D,/E,/ F,/G,/A,/B,/ C/B,/A,/G,/ | A,/B,/A,/G,/ F,/_E,/D,/C,/ D,F, | B,,B,/C/ DF B,D | %13
 G,/B,/G,/F,/ E,/G,/E,/D,/ ^C,/E,/C,/=B,,/ | A,,A,/=B,/ ^CE A,G, | %15
 F,/D/F,/E,/ D,/A,/D,/C,/ B,,/F,/B,,/A,,/ | G,,G,/A,/ B,D G,B, | A,E A,E A,E | G,E G,E G,E | %19
 F,F F,F F,F |[K:treble] ^CG CG CG | DF DF DF | CA CA CA | =B,G B,G B,G | E=B EB EB | %25
[K:bass] A,2 z/ D/C/=B,/ A,/C/B,/A,/ | F/D/A,/D/ F/D/A,/D/ F/D/A,/D/ | %27
 E/D/A,/D/ E/C/A,/C/ E/C/A,/C/ | D/=B,/A,/B,/ D/B,/^G,/B,/ D/B,/G,/B,/ | CA,, C,E, A,C | %30
 DF A,D D,=B, | CE A,C C,A, | =B,D ^G,B, EE, | %33
 A,/[I:staff -1]A/G/F/ E/[I:staff +1]D/C/=B,/ A,/C/E,/G,/ | ^F,[I:staff -1]A cA ^FD | %35
 G[I:staff +1]G, B,[I:staff -1]D GF | E/_D/C/B,/ F/D/C/B,/ G/D/C/B,/ | %37
 A,/F/E/D/[I:staff +1] C/B,/A,/G,/ B,/A,/G,/F,/ | E,/[I:staff -1]G/F/E/ D/G/F/E/ ^C/G/F/E/ | %39
[I:staff +1] D/_E/D/C/ B,/C/B,/A,/ G,/A,/G,/F,/ | E,/B,/A,/G,/ F,/G,/F,/E,/ D,/_E,/D,/C,/ | %41
 B,,G,, B,,D, G,2- | G,/G,/A,,/G,,/ A,,/G,/A,,/G,/ A,,/G,/A,,/G,/ | %43
 A,,/F,/A,,/G,,/ A,,/F,/A,,/F,/ A,,/F,/A,,/F,/ | A,,/E,/A,,/G,,/ A,,/E,/A,,/E,/ A,,/E,/A,,/E,/ | %45
 A,,/D,/F,/D,/ A,,/D,/F,/A,/ G,,/E,/G,/B,/ | G,^C, E,G,, z/ B,,/A,,/G,,/ | %47
 F,,/F,/E,/F,/ F,,/F,/E,/F,/ F,,/F,/E,/D,/ | ^C,E,, G,,^C,, z/ C,/=B,,/A,,/ | %49
 D,D,, F,,A,, D,/4^C,/4D,3/2- | D,/G,/A,/B,/ C,/^F,/G,/A,/ B,,/G,/A,/B,/ | %51
 C,/^F,/G,/A,/ B,,/G,/A,/B,/ A,,/D,/E,/F,/ | G,,/D,/E,/^F,/ G,/ z/ z z2 | %53
 z2 z/ C/B,/A,/ G,/B,/E,/G,/ | ^C,2 z A,, =B,,C, | D,E, F,G, A,A,, | D,A, D,A, D,A, | %57
 D,G, D,G, D,G, | D,A, D,A, D,A, | D,B, D,B, D,B, | !fermata![D,A,]6 | z6 |[M:4/4] z8 | z8 | z8 | %65
 z8 | z8 | (3D,/E,/F,/(3G,/F,/E,/ (3F,/G,/A,/(3B,/A,/G,/ A,D^C=C | =B,_B,A,G,- G,F,E,A, | %69
 D,/D/_E/D/ C/E/D/C/ =B,/G,/ C2 _B,- | B,A,G,C (3F,/G,/A,/(3B,/A,/G,/ A,A,, | %71
 (3D,/E,/F,/(3G,/F,/E,/ (3F,/G,/A,/(3B,/A,/G,/ A,G, (3F,/E,/D,/(3^C,/D,/E,/ | %72
 D,2- D,/C,/B,, A,,>D, G,,>C, | F,,>B,, E,,>A,, D,, D,2 ^C, | D,/A,/B,/A,/ G,/B,/A,/G,/ F,2 E,2 | %75
 D, z z2 z2 z/ =B,,/C,/D,/ | E,/^F,/G,/E,/ A,/^G,/A,/=B,/ C/F,/B,/A,/ G,/E,/A,- | %77
 A,/D,/G,/F,/ E,/C,/F,- F,/=B,,/E,/D,/ ^C,/A,,/D,- | %78
 D,^C, (3D,/=C,/B,,/(3A,,/B,,/C,/ (3B,,/A,,/G,,/(3^F,,/G,,/A,,/ G,,D,, | %79
 _E,,=E,, F,,^F,, (3G,,/A,,/B,,/(3C,/B,,/A,,/ (3B,,/C,/D,/(3_E,/D,/C,/ | %80
 D, G,2 ^F, (3G,/=F,/E,/(3D,/E,/F,/ E,G, | (3C/B,/A,/(3G,/A,/B,/ A,C (3F,/_E,/D,/(3C,/D,/E,/ D,F, | %82
 (3B,/A,/G,/(3^F,/G,/A,/ (3G,/=F,/E,/(3D,/E,/F,/ (3E,/D,/C,/(3=B,,/^C,/D,/ C,/A,,/D,- | %83
 D,^C, D,G,- G,^F, G,/=F,/E,/D,/ | ^C,/E,/D,/=C,/ =B,,_B,, A,,/A,/B,/A,/ G,/B,/A,/G,/ | %85
 F,/A,/G,/F,/ E,/D,/^C,/E,/ D,/=C,/B,,/A,,/ G,,/B,,/A,,/G,,/ | %86
 F,,B,, (3A,,/G,,/F,,/(3E,,/F,,/G,,/ (3F,,/E,,/D,,/(3^C,,/D,,/E,,/ D,, z | %87
 z/ E,,/F,,/G,,/ A,,/=B,,/C,/A,,/ D,/^C,/D,/E,/ F,/B,,/E,/D,/ | %88
 ^C,/A,,/D,/G,/ A,A,, !fermata!D,,4 |] %89
V:3
 x6 | x6 | x6 | x6 | z/ D/C/B,/ A,/ z/ z z2 | x6 | x6 | x6 | x6 | x6 | x6 | x6 | x6 | x6 | x6 | %15
 x6 | x6 | x6 | x6 | x6 | x6 | x6 | x6 | x6 | x6 | z/ A/G/F/ E/ z/ z z2 | x6 | x6 | x6 | x6 | x6 | %31
 x6 | x6 | x6 | x6 | x6 | x6 | x6 | x6 | x6 | x6 | x6 | x6 | x6 | x6 | x6 | x6 | x6 | x6 | x6 | %50
 x6 | x6 | x6 | x6 | x6 | x6 | x6 | x6 | x6 | x6 | x6 | x6 |[M:4/4] x8 | x8 | %64
 FDA z z/ =B,/C/D/ E/^F/G/E/ | A/^G/A/=B/ c/^F/B/A/ G/E/ A2 =G- | %66
 (3G/F/E/(3D/E/F/ (3E/D/C/(3=B,/C/D/ C^CD[I:staff +1]G, | F,[I:staff -1]=B,A,D ^CD E2 | %68
[I:staff +1] D2 x2[I:staff -1] z/ A/_B/B/ G/B/A/G/ | ^F/D/ G2[I:staff +1] =F FE D2 | %70
[I:staff -1] C/c/d/c/ B/d/c/B/ AGFE | F^C D2- D[I:staff +1]B, A,2 | %72
 (3A,/G,/F,/(3E,/F,/G,/ F,>G,[I:staff -1] z/[I:staff +1] G,/^F,[I:staff -1] z/[I:staff +1] =F,/E, | %73
[I:staff -1] z/[I:staff +1] _E,/D,[I:staff -1] z/[I:staff +1] D,/^C, F,/[I:staff -1]A/B/A/ G/B/A/G/ | %74
 F2[I:staff +1] E2- E D2 ^C | (3D/E/F/(3G/F/E/[I:staff -1] (3F/G/A/(3_B/A/G/ Ad ^c=c | %76
 =B_B A2- A z/ F/ E>E | D>D C>C =B,>B, A, z | (3A/G/F/(3E/F/G/ (3F/E/D/(3^C/D/E/ DA, B,=B, | %79
 C^C D2- D2- D z | z2 (3d/=c/B/(3A/B/c/ Bd G=B | c z (3c/B/A/(3G/A/B/ Ac FA | BA- A4- A/A/B/A/ | %83
 G/B/A/G/ F[I:staff +1]B, A,2 G,[I:staff -1]G- | GF/E/ D/G/E/D/ ^C D2 C | %85
 D/[I:staff +1]C/B,/A,/ G,/B,/A,/G,/ F,/A,/G,/F,/ E,/D,/^C,/E,/ | %86
 (3D,/E,/F,/(3G,/F,/E,/ (3F,/G,/A,/(3B,/A,/G,/ A,2- (3A,/G,/F,/(3E,/F,/G,/ | %87
 F,[I:staff -1]F EA A>G- G/FF/ | ED- D^C D4 |] %89

